images/australia.svg

<?xml version="1.0" encoding="UTF-8" standalone="no"?>
<svg width="79px" height="35px" viewBox="0 0 79 35" version="1.1" xmlns="http://www.w3.org/2000/svg" xmlns:xlink="http://www.w3.org/1999/xlink">
    <!-- Generator: Sketch 3.8.3 (29802) - http://www.bohemiancoding.com/sketch -->
    <title>Page 1</title>
    <desc>Created with Sketch.</desc>
    <defs></defs>
    <g id="Page-1" stroke="none" stroke-width="1" fill="none" fill-rule="evenodd" opacity="0.603428172">
        <g id="Home" transform="translate(-564.000000, -2199.000000)" fill="#221F20">
            <g id="Group-18" transform="translate(564.000000, 2199.000000)">
                <g id="Group-6">
                    <g id="Page-1">
                        <path d="M46.3808112,4.83663683 C46.4624742,6.26512326 46.472682,8.29503119 46.4709067,9.5389404 C46.5317101,9.51112134 46.5920697,9.48551015 46.652873,9.45769109 C48.8164966,8.52464879 51.6928955,8.70922602 51.8713112,8.72114847 C52.015109,8.72997992 52.1575753,8.78341017 52.2751876,8.88011451 C52.3031483,8.90219312 52.3288899,8.9264796 52.3533,8.95253236 C52.4260865,9.03510639 52.4780135,9.12827815 52.5077494,9.22851506 C52.5077494,9.23204764 52.5090809,9.23690493 52.5108562,9.24043751 C52.6550978,8.27604358 52.9218337,7.0396411 53.4091483,5.62528498 C53.9896652,3.94510233 54.560418,2.66365947 54.9869292,1.79773617 C53.3518955,2.10462893 50.6907494,2.68264708 49.1236202,3.42934587 C47.4832607,4.21225358 46.7083506,4.64366973 46.3808112,4.83663683 L46.3808112,4.83663683 Z M40.4691258,9.29563405 L43.0850022,11.7931671 C43.5252719,11.4103239 44.2225135,10.8482023 45.0475753,10.3218481 C45.0546764,9.23513865 45.0648843,5.54580197 44.8949011,4.06388528 C44.853182,3.68634095 44.813682,3.34633027 44.7772888,3.04473638 C43.7454067,4.44010489 42.0899573,6.7446708 40.4691258,9.29563405 L40.4691258,9.29563405 Z M60.6003674,25.1838475 L65.738918,25.1838475 C66.0855416,24.3506005 67.0184517,22.6894055 69.4421539,19.4173546 C71.6559292,16.4248191 74.0902831,14.4236133 75.7648169,13.2596287 C73.6828562,13.2335759 70.6382494,13.2905388 68.3707719,13.7250459 C64.585873,14.4531987 63.2024854,14.8912384 63.188727,14.894771 C62.944182,14.9738124 62.6756708,14.9137586 62.4883787,14.7393375 C62.2993112,14.565358 62.2194236,14.3030641 62.2820022,14.0544589 C62.3148449,13.9219872 63.0950809,10.7651867 63.7714629,9.41662487 C63.9201427,9.11988827 64.0537326,8.8611269 64.1717888,8.63857445 C62.798609,8.70922602 60.4965135,8.92294702 58.5024292,9.55616172 C55.4374067,10.5289455 53.4992438,11.9521331 53.4801596,11.9658218 C53.4126989,12.0157195 53.3399124,12.0519284 53.2635753,12.0762149 C53.3572213,12.5040985 53.4282326,12.9094619 53.4557494,13.2282771 C53.4712831,13.4146206 53.4819348,13.5819765 53.4903674,13.7303448 C54.617227,13.4786486 56.5522831,13.0988964 58.036418,13.0750515 C60.0908618,13.0419336 61.285182,13.133339 61.4152213,13.1439368 C61.4307551,13.1457031 61.448064,13.1474693 61.465373,13.1510019 C61.547036,13.1611581 61.6251483,13.1872109 61.6961596,13.2251861 C61.7827045,13.2715512 61.8608169,13.3355791 61.924727,13.4146206 C61.9717719,13.4768823 62.0099404,13.5457676 62.035682,13.6199517 C62.0565416,13.6804471 62.0689685,13.740501 62.0720753,13.8027627 C62.0947101,14.0597577 62.3321539,17.194038 61.7219011,20.6387436 C61.448064,22.1771816 61.0095697,23.8176227 60.6003674,25.1838475 L60.6003674,25.1838475 Z M67.3078225,25.1838475 L70.6884011,25.1838475 C70.8930022,24.1417368 71.5396483,21.3991312 73.0916876,18.732476 C73.7503169,17.5994014 74.4870584,16.4747167 75.1700978,15.4847116 C73.7729517,16.6124873 72.1152831,18.189342 70.5863225,20.2536926 C68.6326258,22.8947366 67.7259011,24.3868094 67.3078225,25.1838475 L67.3078225,25.1838475 Z M59.9017944,27.3603574 L72.3460697,27.3603574 L72.3460697,26.5964373 L60.1565472,26.5964373 C60.0646764,26.8808099 59.9781315,27.137805 59.9017944,27.3603574 L59.9017944,27.3603574 Z M16.7713449,24.5404766 L16.8840753,27.4469056 C18.128991,26.1614886 20.1847663,24.1143593 22.1753,22.4876069 C24.7445753,20.3866059 27.3555697,19.2588302 28.2933618,18.8927667 C28.4198506,18.4600258 28.6714966,17.6753518 29.1011146,16.6350075 C27.8996933,16.0830421 24.8328955,14.894771 20.7448674,14.894771 C17.3589629,14.894771 15.8974629,15.2241839 15.3187213,15.4277488 C15.6409348,16.659294 16.398536,19.7087924 16.5631933,21.8561585 L16.7695697,24.509125 C16.7695697,24.5197227 16.7713449,24.5298789 16.7713449,24.5404766 L16.7713449,24.5404766 Z M29.5973056,19.5379039 C29.6248225,20.195405 29.7894798,23.1932395 30.5053618,25.0990656 C31.0792213,26.6308799 31.7400697,27.8884779 32.0866933,28.5075623 C32.3396708,26.4670566 33.2344124,20.4969989 35.5489348,15.2656917 C37.471564,10.9223865 40.9959404,5.81118693 43.0676933,2.97055223 C40.8920865,4.08640547 37.6499798,6.12867742 35.0807045,9.35436317 C32.830536,12.1795428 31.4262888,14.8497306 30.6007831,16.754232 L29.5973056,19.5379039 Z M7.09562022,28.5870453 L15.5091202,28.6179554 L15.3670978,25.000595 C14.6805079,24.6592596 12.998873,23.9037293 10.7624629,23.4449357 C8.58330562,22.9962982 5.64122135,23.1274452 4.22499101,23.2312147 C4.37233933,23.6917746 4.61821573,24.3678218 5.01898539,25.2765777 C5.67051348,26.756728 6.67265955,28.06599 7.09562022,28.5870453 L7.09562022,28.5870453 Z M17.7180135,28.6263452 L30.5608393,28.6731519 C30.1760472,27.9449991 29.6523393,26.8653548 29.1739011,25.5940681 C28.5636483,23.9642247 28.3208787,21.7303104 28.2276764,20.4524001 C27.0990416,20.9438701 25.0548056,21.959928 23.0766989,23.5796153 C21.056873,25.2302126 18.914109,27.3828776 17.7180135,28.6263452 L17.7180135,28.6263452 Z M33.4980416,28.6833081 L40.2347888,28.7075945 C40.5783056,27.4416067 41.7171483,23.4930671 43.5914011,19.5348129 C45.2433,16.0433006 48.5253506,12.0815138 50.2278449,10.1372709 C49.3175697,10.1907011 48.1645247,10.3461346 47.2165247,10.7550305 C45.3094292,11.5776798 43.5860753,13.2472647 43.5687663,13.264486 C43.2949292,13.5320788 42.8577663,13.5338451 42.5803787,13.2697849 L39.7026483,10.5236467 C38.6192831,12.2987674 37.5998281,14.1392408 36.8488843,15.8348784 C34.635109,20.8370096 33.7474685,26.7187528 33.4980416,28.6833081 L33.4980416,28.6833081 Z M41.7087157,28.7146597 L46.6719573,28.731881 C47.2023225,27.5449346 48.8271483,24.1986996 51.6338674,20.869686 C53.8614011,18.2290835 57.0533562,15.8556323 59.078064,14.4805762 C58.7660584,14.4788099 58.426536,14.4805762 58.058609,14.4876413 C56.0458843,14.5203177 52.9564517,15.306758 52.9253843,15.3155894 C52.6342382,15.3915398 52.3253393,15.2740816 52.1575753,15.0241517 C52.032418,14.8395744 52.0066764,14.6117231 52.0741371,14.4081583 C52.0830135,14.3339742 52.1003225,14.061524 52.0395191,13.3475016 C51.9893674,12.7593273 51.7341708,11.7158919 51.496727,10.8482023 C49.9087382,12.6471679 46.5019742,16.705659 44.8758169,20.1366759 C43.2203674,23.6330455 42.135227,27.2018329 41.7087157,28.7146597 L41.7087157,28.7146597 Z M48.2359798,28.7385046 L52.5490247,28.7539596 L52.5490247,28.0677562 C52.5490247,27.6778479 52.8681315,27.3621237 53.2600247,27.3621237 L58.3985753,27.3621237 C58.804227,26.2047627 59.8445416,23.0877037 60.3212045,20.393671 C60.6904629,18.3134238 60.7304067,16.3161923 60.7077719,15.1018684 C58.9116315,16.2746845 55.1498112,18.8998319 52.7225584,21.7788834 C50.4133618,24.5161901 48.9221258,27.312226 48.2359798,28.7385046 L48.2359798,28.7385046 Z M1.67790674,33.2456332 L75.0555921,33.2456332 L73.9704517,28.8767167 L73.0566258,28.8767167 C72.9217045,28.8767167 72.7952157,28.8387415 72.6891427,28.7747135 L53.9705809,28.7747135 L53.9705809,29.4631248 C53.9705809,29.6494683 53.8946876,29.8305129 53.7610978,29.9634262 C53.6292831,30.0945732 53.4490921,30.1687573 53.2600247,30.1687573 L53.2582494,30.1687573 L47.1521708,30.1462371 L47.1228787,30.1462371 L6.75920449,29.9996351 L5.82141236,29.9996351 L5.35673258,31.5676584 C5.26841236,31.867486 4.99102472,32.0745834 4.67546854,32.0745834 L2.05071573,32.0745834 L1.67790674,33.2456332 Z M75.9623169,34.6586646 L0.710822472,34.6586646 C0.483586517,34.6586646 0.270108989,34.5513625 0.136962921,34.3703179 C0.00337303371,34.1892732 -0.0347955056,33.9547983 0.0326651685,33.739311 L0.852844944,31.1552299 C0.946491011,30.8602596 1.22032809,30.6619936 1.53055843,30.6619936 L4.14510337,30.6619936 L4.60978315,29.092204 C4.69987865,28.7919348 4.97726629,28.5870453 5.29104719,28.5870453 L5.31190674,28.5870453 C4.80550787,27.8796464 4.18682247,26.9103952 3.71859213,25.8426734 C2.79633371,23.7452049 2.6228,22.7565245 2.6161427,22.7154582 C2.58463146,22.5238159 2.63345169,22.3273162 2.75106404,22.1718827 C2.86912022,22.0186571 3.04576067,21.9184202 3.24015393,21.8976663 C3.42744607,21.8769124 7.87585618,21.4079626 11.0500584,22.0614896 C12.8604011,22.4324104 14.3201258,22.9790769 15.257918,23.3879729 L15.1487382,21.9647853 C14.9512382,19.4102895 13.8155022,15.303667 13.8035191,15.2621592 C13.744491,15.0479966 13.7893169,14.8188206 13.924682,14.6426332 C14.2610978,14.2098923 15.5925584,13.4821812 20.7448674,13.4821812 C25.1000753,13.4821812 28.3262045,14.7168173 29.6749742,15.3398759 C30.5643899,13.4459722 31.9304685,11.0327795 33.9676034,8.4782837 C38.436873,2.86678274 44.6192888,0.698662679 45.0213899,0.562658406 C45.0564517,0.550294382 45.0928449,0.541904508 45.1310135,0.533073061 L45.1323449,0.533073061 C45.1603056,0.528215766 45.1860472,0.526449477 45.2140079,0.524683187 C45.3733393,0.512319163 45.529564,0.555593249 45.6667045,0.648765007 C45.6871202,0.664220038 45.7062045,0.679675069 45.7252888,0.69689639 C45.8468955,0.800665883 45.9232326,0.936670156 45.9543,1.08327216 L45.9543,1.08503845 C45.9578506,1.09916877 45.9596258,1.1146238 45.9627326,1.12831254 C45.9680584,1.16275518 46.0723562,1.8992978 46.2370135,3.2964326 C46.7190022,3.03590493 47.4419854,2.66498419 48.5080416,2.15629289 C51.0702157,0.93357915 55.9886315,0.186438795 56.1967831,0.155528733 C56.4706202,0.112254646 56.7444573,0.236336467 56.8971315,0.467720359 C57.0480303,0.698662679 57.0515809,0.995399274 56.9042326,1.22987417 C56.8935809,1.24577078 55.8346258,2.94979833 54.7508169,6.0858449 C54.1822831,7.73290963 53.9395135,9.12474557 53.8356596,10.064853 C54.7770022,9.52348537 56.2331764,8.79356633 58.0692607,8.20892459 C61.354418,7.1672555 65.2413955,7.1880094 65.4025022,7.18977569 C65.6608056,7.1928667 65.896918,7.33284512 66.0198562,7.55716385 C66.1427944,7.78104102 66.1361371,8.05393271 65.9989966,8.27118628 C65.9954461,8.27471886 65.6608056,8.81255394 65.0403449,10.049398 C64.6728618,10.7788755 64.2481258,12.2038293 63.9671876,13.2234198 C64.8095584,13.0163224 66.1379124,12.7160532 68.1000416,12.3385089 C71.9821371,11.5931348 77.7722157,11.8951703 78.176536,11.9176905 C78.2231371,11.9190152 78.2684067,11.9260803 78.3132326,11.9366781 C78.3496258,11.9450679 78.3860191,11.9569904 78.4224124,11.9711207 L78.4224124,11.972887 C78.5750865,12.0347071 78.7069011,12.1521653 78.7867888,12.3106898 C78.8697831,12.479812 78.879991,12.6661555 78.828064,12.8317451 L78.828064,12.8335114 C78.8214067,12.8560316 78.8143056,12.8763439 78.8054292,12.8970978 C78.8054292,12.8988641 78.8054292,12.8988641 78.8040978,12.8988641 C78.7779124,12.9611258 78.7432944,13.0216212 78.6980247,13.0732852 C78.5315921,13.2852399 76.097682,16.3886101 74.3188506,19.4416411 C73.0064742,21.7011666 72.3789124,24.0746178 72.137918,25.1851722 L73.0548506,25.1851722 C73.4467438,25.1851722 73.7658506,25.5008964 73.7658506,25.8908047 L73.7658506,27.4641269 L74.525227,27.4641269 C74.8527663,27.4641269 75.1372551,27.6849131 75.2153674,28.001962 L76.650682,33.7839098 C76.702609,33.9945398 76.6560079,34.218417 76.5206427,34.3893055 C76.3870528,34.5584277 76.1806764,34.6586646 75.9623169,34.6586646 L75.9623169,34.6586646 Z" id="Fill-1"></path>
                    </g>
                </g>
            </g>
        </g>
    </g>
</svg>

<svg width="79" height="35" viewBox="0 0 79 35" xmlns="http://www.w3.org/2000/svg"><title>Page 1</title><path d="M46.38 4.837c.082 1.428.093 3.458.09 4.702l.183-.081c2.163-.933 5.04-.749 5.218-.737a.704.704 0 0 1 .482.232.73.73 0 0 1 .158.287c.144-.964.41-2.2.898-3.615a33.317 33.317 0 0 1 1.578-3.827c-1.635.307-4.296.885-5.863 1.631-1.64.783-2.416 1.215-2.743 1.408zm-5.91 4.459l2.615 2.497c.44-.383 1.138-.945 1.963-1.471.007-1.087.017-4.776-.153-6.258-.042-.378-.081-.718-.118-1.02a110.666 110.666 0 0 0-4.308 6.252zM60.6 25.184h5.139c.347-.833 1.28-2.495 3.703-5.767a27.435 27.435 0 0 1 6.323-6.157c-2.082-.026-5.127.03-7.394.465-3.785.728-5.169 1.166-5.182 1.17a.709.709 0 0 1-.907-.84c.033-.133.813-3.29 1.49-4.638.148-.297.282-.556.4-.778-1.373.07-3.675.284-5.67.917-3.065.973-5.003 2.396-5.022 2.41a.739.739 0 0 1-.216.11c.093.428.164.833.192 1.152.015.187.026.354.034.502 1.127-.251 3.062-.631 4.546-.655 2.055-.033 3.25.058 3.38.069.015.002.032.003.05.007.081.01.16.036.23.074a.75.75 0 0 1 .229.19.748.748 0 0 1 .11.205c.022.06.034.12.037.183.023.257.26 3.391-.35 6.836-.274 1.538-.712 3.179-1.122 4.545zm6.708 0h3.38c.205-1.042.852-3.785 2.404-6.452a50.733 50.733 0 0 1 2.078-3.247 26.234 26.234 0 0 0-4.584 4.769c-1.953 2.64-2.86 4.133-3.278 4.93zm-7.406 2.176h12.444v-.764h-12.19a44.68 44.68 0 0 1-.254.764zm-43.13-2.82l.112 2.907c1.245-1.286 3.3-3.333 5.291-4.96a23.754 23.754 0 0 1 6.118-3.594 22.7 22.7 0 0 1 .808-2.258c-1.201-.552-4.268-1.74-8.356-1.74-3.386 0-4.848.33-5.426.533.322 1.231 1.08 4.28 1.244 6.428l.207 2.653.001.031zm12.825-5.002c.028.657.192 3.655.908 5.561a25.577 25.577 0 0 0 1.582 3.409c.253-2.04 1.147-8.011 3.462-13.242 1.923-4.344 5.447-9.455 7.519-12.295-2.176 1.115-5.418 3.158-7.987 6.383-2.25 2.826-3.655 5.496-4.48 7.4l-1.004 2.784zM7.096 28.587l8.413.031-.142-3.617c-.686-.342-2.368-1.097-4.605-1.556-2.179-.449-5.12-.318-6.537-.214.147.46.393 1.137.794 2.046.652 1.48 1.654 2.789 2.077 3.31zm10.622.04l12.843.046a27.25 27.25 0 0 1-1.387-3.079c-.61-1.63-.853-3.864-.946-5.142-1.129.492-3.173 1.508-5.151 3.128-2.02 1.65-4.163 3.803-5.359 5.046zm15.78.056l6.737.025c.343-1.266 1.482-5.215 3.356-9.173 1.652-3.492 4.934-7.453 6.637-9.398-.91.054-2.063.21-3.011.618-1.908.823-3.63 2.492-3.648 2.51a.712.712 0 0 1-.989.005l-2.877-2.746c-1.084 1.775-2.103 3.615-2.854 5.31-2.214 5.003-3.102 10.885-3.351 12.85zm8.21.032l4.964.017c.53-1.187 2.155-4.533 4.962-7.862 2.227-2.64 5.42-5.014 7.444-6.39-.312-.001-.651 0-1.02.008-2.012.032-5.102.819-5.133.828a.71.71 0 0 1-.767-.292.702.702 0 0 1-.084-.616c.009-.074.026-.346-.034-1.06-.05-.589-.306-1.632-.543-2.5-1.588 1.8-4.995 5.858-6.621 9.289-1.656 3.496-2.74 7.065-3.167 8.578zm6.528.024l4.313.015v-.686c0-.39.32-.706.711-.706h5.139c.405-1.157 1.446-4.274 1.922-6.968.37-2.08.41-4.078.387-5.292-1.796 1.173-5.558 3.798-7.985 6.677-2.31 2.737-3.8 5.533-4.487 6.96zM1.678 33.246h73.378l-1.086-4.37h-.913a.711.711 0 0 1-.368-.101H53.971v.688a.709.709 0 0 1-.711.706h-.002l-6.106-.023h-.03L6.76 30h-.938l-.464 1.568a.71.71 0 0 1-.682.507H2.051l-.373 1.17zm74.284 1.413H.711a.707.707 0 0 1-.678-.92l.82-2.584a.709.709 0 0 1 .678-.493h2.614l.465-1.57a.71.71 0 0 1 .681-.505h.02c-.505-.707-1.124-1.677-1.592-2.744-.923-2.098-1.096-3.086-1.103-3.128a.71.71 0 0 1 .135-.543.714.714 0 0 1 .49-.274c.186-.021 4.635-.49 7.81.163 1.81.371 3.27.918 4.207 1.327l-.11-1.423c-.197-2.555-1.332-6.661-1.344-6.703a.708.708 0 0 1 .12-.62c.337-.432 1.669-1.16 6.82-1.16 4.356 0 7.582 1.235 8.931 1.858a34.778 34.778 0 0 1 4.293-6.862C38.437 2.867 44.619.698 45.02.563c.035-.013.072-.021.11-.03h.001a.702.702 0 0 1 .822.55v.002c.004.014.006.03.009.043.005.035.11.771.274 2.168.482-.26 1.205-.631 2.271-1.14 2.562-1.222 7.48-1.97 7.689-2a.71.71 0 0 1 .707 1.074c-.01.016-1.07 1.72-2.153 4.856a18.532 18.532 0 0 0-.915 3.979 21.937 21.937 0 0 1 4.233-1.856c3.285-1.042 7.172-1.021 7.334-1.02a.712.712 0 0 1 .617.368.703.703 0 0 1-.021.714c-.004.004-.338.542-.959 1.778-.367.73-.792 2.155-1.073 3.174.843-.207 2.17-.507 4.133-.884 3.882-.746 9.672-.444 10.077-.421a.675.675 0 0 1 .245.053v.002a.703.703 0 0 1 .406.859v.002a.566.566 0 0 1-.023.063v.002a.64.64 0 0 1-.107.174c-.166.212-2.6 3.316-4.38 6.369-1.312 2.26-1.94 4.633-2.18 5.743h.917c.392 0 .71.316.71.706v1.573h.76c.328 0 .612.22.69.538l1.436 5.782a.703.703 0 0 1-.689.875z" fill="#221F20" fill-rule="evenodd" opacity=".603"/></svg>
